ui_kit/lib/assets/icons/light_mode.svg

<svg width="18" height="18" viewBox="0 0 18 18" fill="none" xmlns="http://www.w3.org/2000/svg">
<path fill-rule="evenodd" clip-rule="evenodd" d="M9 0C9.45187 0 9.81819 0.366312 9.81819 0.818182V2.45455C9.81819 2.90641 9.45187 3.27273 9 3.27273C8.54813 3.27273 8.18182 2.90641 8.18182 2.45455V0.818182C8.18182 0.366312 8.54813 0 9 0ZM9 6.54552C7.64439 6.54552 6.54545 7.64445 6.54545 9.00006C6.54545 10.3557 7.64439 11.4546 9 11.4546C10.3556 11.4546 11.4545 10.3557 11.4545 9.00006C11.4545 7.64445 10.3556 6.54552 9 6.54552ZM4.90909 9.00006C4.90909 6.74072 6.74065 4.90915 9 4.90915C11.2593 4.90915 13.0909 6.74072 13.0909 9.00006C13.0909 11.2594 11.2593 13.091 9 13.091C6.74065 13.091 4.90909 11.2594 4.90909 9.00006ZM9.81819 15.5455C9.81819 15.0936 9.45187 14.7273 9 14.7273C8.54813 14.7273 8.18182 15.0936 8.18182 15.5455V17.1818C8.18182 17.6337 8.54813 18 9 18C9.45187 18 9.81819 17.6337 9.81819 17.1818V15.5455ZM2.69419 2.69422C3.01371 2.3747 3.53175 2.3747 3.85127 2.69422L5.07854 3.92149C5.39806 4.24101 5.39806 4.75905 5.07854 5.07857C4.75902 5.39809 4.24098 5.39809 3.92146 5.07857L2.69419 3.8513C2.37467 3.53178 2.37467 3.01374 2.69419 2.69422ZM14.0785 12.9215C13.759 12.602 13.241 12.602 12.9215 12.9215C12.6019 13.241 12.6019 13.7591 12.9215 14.0786L14.1487 15.3059C14.4683 15.6254 14.9863 15.6254 15.3058 15.3059C15.6253 14.9863 15.6253 14.4683 15.3058 14.1488L14.0785 12.9215ZM0 9.00005C0 8.54818 0.366312 8.18187 0.818182 8.18187H2.45455C2.90641 8.18187 3.27273 8.54818 3.27273 9.00005C3.27273 9.45192 2.90641 9.81823 2.45455 9.81823H0.818182C0.366312 9.81823 0 9.45192 0 9.00005ZM15.5454 8.18187C15.0936 8.18187 14.7273 8.54818 14.7273 9.00005C14.7273 9.45192 15.0936 9.81823 15.5454 9.81823H17.1818C17.6337 9.81823 18 9.45192 18 9.00005C18 8.54818 17.6337 8.18187 17.1818 8.18187H15.5454ZM5.07854 12.9215C5.39806 13.241 5.39806 13.7591 5.07854 14.0786L3.85127 15.3059C3.53175 15.6254 3.01371 15.6254 2.69419 15.3059C2.37467 14.9863 2.37467 14.4683 2.69419 14.1488L3.92146 12.9215C4.24098 12.602 4.75902 12.602 5.07854 12.9215ZM15.3058 3.8513C15.6253 3.53178 15.6253 3.01374 15.3058 2.69422C14.9863 2.3747 14.4683 2.3747 14.1487 2.69422L12.9215 3.92149C12.6019 4.24101 12.6019 4.75905 12.9215 5.07857C13.241 5.39809 13.759 5.39809 14.0785 5.07857L15.3058 3.8513Z" fill="white"/>
</svg>

<svg xmlns="http://www.w3.org/2000/svg" width="18" height="18" fill="none" viewBox="0 0 18 18"><path fill="#fff" fill-rule="evenodd" d="M9 0c.452 0 .818.366.818.818v1.637a.818.818 0 0 1-1.636 0V.818C8.182.366 8.548 0 9 0Zm0 6.546a2.455 2.455 0 1 0 0 4.909 2.455 2.455 0 0 0 0-4.91ZM4.91 9a4.09 4.09 0 1 1 8.18 0 4.09 4.09 0 0 1-8.18 0Zm4.908 6.546a.818.818 0 1 0-1.636 0v1.636a.818.818 0 1 0 1.636 0v-1.636ZM2.694 2.694a.818.818 0 0 1 1.157 0L5.08 3.921A.818.818 0 1 1 3.92 5.08L2.694 3.85a.818.818 0 0 1 0-1.157Zm11.384 10.227a.818.818 0 1 0-1.156 1.158l1.227 1.227a.818.818 0 0 0 1.157-1.157l-1.227-1.227ZM0 9.002c0-.453.366-.82.818-.82h1.637a.818.818 0 0 1 0 1.637H.818A.818.818 0 0 1 0 9Zm15.545-.82a.818.818 0 0 0 0 1.637h1.637a.818.818 0 1 0 0-1.636h-1.637ZM5.08 12.922c.32.32.32.838 0 1.158l-1.23 1.226a.818.818 0 0 1-1.157-1.157l1.227-1.227a.818.818 0 0 1 1.158 0Zm10.227-9.07a.818.818 0 0 0-1.157-1.157l-1.227 1.227a.818.818 0 1 0 1.156 1.158l1.228-1.228Z" clip-rule="evenodd"/></svg>
